public/images/Footer/Instagram-icon.svg

<svg width="21" height="21" viewBox="0 0 21 21" fill="none" xmlns="http://www.w3.org/2000/svg">
<path d="M20.4844 2.94632C20.2792 2.39021 19.9518 1.88684 19.5263 1.47367C19.1132 1.04825 18.6101 0.72084 18.0537 0.515615C17.6024 0.34034 16.9244 0.131712 15.6757 0.0748748C14.3249 0.0132733 13.9199 0 10.5002 0C7.08009 0 6.67509 0.0129329 5.32462 0.0745345C4.07591 0.131712 3.39761 0.34034 2.94666 0.515615C2.39021 0.72084 1.88684 1.04825 1.47401 1.47367C1.04859 1.88684 0.72118 2.38987 0.515615 2.94632C0.34034 3.39761 0.131712 4.07591 0.0748748 5.32462C0.0132733 6.67509 0 7.08009 0 10.5002C0 13.9199 0.0132733 14.3249 0.0748748 15.6757C0.131712 16.9244 0.34034 17.6024 0.515615 18.0537C0.72118 18.6101 1.04825 19.1132 1.47367 19.5263C1.88684 19.9518 2.38987 20.2792 2.94632 20.4844C3.39761 20.66 4.07591 20.8686 5.32462 20.9255C6.67509 20.9871 7.07975 21 10.4998 21C13.9202 21 14.3253 20.9871 15.6754 20.9255C16.9241 20.8686 17.6024 20.66 18.0537 20.4844C19.1707 20.0535 20.0535 19.1707 20.4844 18.0537C20.6597 17.6024 20.8683 16.9244 20.9255 15.6757C20.9871 14.3249 21 13.9199 21 10.5002C21 7.08009 20.9871 6.67509 20.9255 5.32462C20.8686 4.07591 20.66 3.39761 20.4844 2.94632ZM10.5002 17.0766C6.86772 17.0766 3.9231 14.1323 3.9231 10.4998C3.9231 6.86738 6.86772 3.9231 10.5002 3.9231C14.1323 3.9231 17.0769 6.86738 17.0769 10.4998C17.0769 14.1323 14.1323 17.0766 10.5002 17.0766ZM17.3369 5.20005C16.4881 5.20005 15.7999 4.51189 15.7999 3.66308C15.7999 2.81427 16.4881 2.1261 17.3369 2.1261C18.1857 2.1261 18.8739 2.81427 18.8739 3.66308C18.8736 4.51189 18.1857 5.20005 17.3369 5.20005Z" fill="#FF6B00"/>
</svg>

<svg xmlns="http://www.w3.org/2000/svg" width="21" height="21" fill="none" xmlns:v="https://vecta.io/nano"><path d="M20.484 2.946c-.205-.556-.533-1.059-.958-1.473-.413-.425-.916-.753-1.473-.958-.451-.175-1.129-.384-2.378-.441L10.5 0 5.325.075C4.076.132 3.398.34 2.947.516c-.556.205-1.06.533-1.473.958a3.97 3.97 0 0 0-.958 1.473C.34 3.398.132 4.076.075 5.325L0 10.5l.075 5.176c.057 1.249.265 1.927.441 2.378a3.97 3.97 0 0 0 .958 1.473c.413.425.916.753 1.473.958.451.176 1.13.384 2.378.441L10.5 21l5.176-.075c1.249-.057 1.927-.265 2.378-.441a4.24 4.24 0 0 0 2.431-2.431c.175-.451.384-1.129.441-2.378L21 10.5l-.075-5.176c-.057-1.249-.265-1.927-.441-2.378zM10.5 17.077A6.58 6.58 0 0 1 3.923 10.5 6.58 6.58 0 0 1 10.5 3.923a6.58 6.58 0 0 1 6.577 6.577 6.58 6.58 0 0 1-6.577 6.577zM17.337 5.2c-.849 0-1.537-.688-1.537-1.537s.688-1.537 1.537-1.537 1.537.688 1.537 1.537A1.54 1.54 0 0 1 17.337 5.2z" fill="#ff6b00"/></svg>
